; generated by PrusaSlicer 2.5.0 on 2022-10-23 at 12:36:40 UTC

; 

; external perimeters extrusion width = 0.42mm
; perimeters extrusion width = 0.44mm
; infill extrusion width = 0.44mm
; solid infill extrusion width = 0.44mm
; top infill extrusion width = 0.40mm
; support material extrusion width = 0.36mm
; first layer extrusion width = 0.42mm

M107
;TYPE:Custom
G90 ; use absolute coordinates
M83 ; extruder relative mode
M140 S60 ; set final bed temp
M104 S150 ; set temporary nozzle temp to prevent oozing during homing and auto bed leveling
G4 S10 ; allow partial nozzle warmup
G28 ; home all axis
G29 ; auto bed levelling
G1 Z50 F240
G1 X2 Y10 F3000
M104 S215 ; set final nozzle temp
M190 S60 ; wait for bed temp to stabilize
M109 S215 ; wait for nozzle temp to stabilize
G1 Z0.28 F240
G92 E0
G1 Y140 E10 F1500 ; prime the nozzle
G1 X2.3 F5000
G92 E0
G1 Y10 E10 F1200 ; prime the nozzle
G92 E0
G21 ; set units to millimeters
G90 ; use absolute coordinates
M83 ; use relative distances for extrusion
; Filament gcode
M107
;LAYER_CHANGE
;Z:0.12
;HEIGHT:0.12
;BEFORE_LAYER_CHANGE
G92 E0
;0.12


G1 E-.8 F1800
G1 Z.12 F9000
;AFTER_LAYER_CHANGE
;0.12
G1 X111.65 Y83.091
G1 E.8 F1800
M204 S500
;TYPE:Skirt/Brim
;WIDTH:0.42
G1 F1200
G1 X112.227 Y82.35 E.01848
G1 X113.523 Y81.054 E.03604
G1 X114.993 Y80.143 E.03402
G1 X116.202 Y79.945 E.0241
G1 X127.26 Y79.945 E.2175
G1 X128.943 Y80.34 E.03402
G1 X129.938 Y81.054 E.0241
G1 X131.234 Y82.35 E.03604
G1 X132.146 Y83.82 E.03402
G1 X132.344 Y85.029 E.0241
G1 X132.344 Y94.791 E.19202
G1 X132.241 Y95.668 E.01737
G1 X119.86 Y147.698 E1.05196
G1 X118.497 Y151.059 E.07133
G1 X117.478 Y152.456 E.03402
G1 X115.944 Y153.255 E.03402
G1 X114.398 Y153.324 E.03044
G1 X96.159 Y150.355 E.36347
G1 X95.073 Y150.005 E.02244
G1 X92.482 Y148.709 E.05698
G1 X91.648 Y148.142 E.01984
G1 X82.079 Y139.565 E.25274
G1 X81.088 Y138.148 E.03402
G1 X80.831 Y136.437 E.03402
G1 X81.117 Y135.27 E.02364
G1 X82.519 Y132.043 E.0692
G1 X111.62 Y83.143 E1.11925
G1 X111.959 Y83.345 F9000
G1 F1200
G1 X112.506 Y82.629 E.01772
G1 X113.802 Y81.333 E.03604
G1 X115.203 Y80.489 E.03217
G1 X116.202 Y80.339 E.01987
G1 X127.26 Y80.339 E.2175
G1 X128.847 Y80.733 E.03217
G1 X129.66 Y81.333 E.01987
G1 X130.955 Y82.629 E.03604
G1 X131.799 Y84.03 E.03217
G1 X131.949 Y85.029 E.01987
G1 X131.949 Y94.791 E.19202
G1 X131.857 Y95.577 E.01556
G1 X119.476 Y147.607 E1.05196
G1 X118.133 Y150.905 E.07005
G1 X117.153 Y152.214 E.03217
G1 X115.674 Y152.913 E.03217
G1 X114.461 Y152.935 E.02385
G1 X96.222 Y149.966 E.36347
G1 X95.249 Y149.652 E.02011
G1 X92.658 Y148.356 E.05698
G1 X91.911 Y147.848 E.01778
G1 X82.342 Y139.272 E.25274
G1 X81.423 Y137.919 E.03217
G1 X81.243 Y136.293 E.03217
G1 X81.481 Y135.423 E.01773
G1 X82.858 Y132.245 E.06814
G1 X111.928 Y83.396 E1.11807
;WIPE_START
G1 F7200
G1 X112.506 Y82.629 E-.22818
G1 X113.802 Y81.333 E-.43517
G1 X114.15 Y81.123 E-.09665
;WIPE_END
G1 E-.04 F1800
G1 X127.26 Y85.029 F9000
G1 E.8 F1800
;TYPE:Support material
G1 F1200
G1 X128.555 Y85.029 E.02548
G1 X128.555 Y94.791 E.19202
G1 X127.26 Y94.791 E.02548
G1 X127.26 Y97.382 E.05097
G1 X125.964 Y97.382 E.02548
G1 X125.964 Y99.974 E.05097
G1 X124.668 Y99.974 E.02548
G1 X124.668 Y102.565 E.05097
G1 X123.373 Y102.565 E.02548
G1 X123.373 Y106.452 E.07645
G1 X122.077 Y106.452 E.02548
G1 X122.077 Y109.043 E.05097
G1 X120.782 Y109.043 E.02548
G1 X120.782 Y111.634 E.05097
G1 X119.486 Y111.634 E.02548
G1 X119.486 Y115.521 E.07645
G1 X118.19 Y115.521 E.02548
G1 X118.19 Y118.112 E.05097
G1 X116.895 Y118.112 E.02548
G1 X116.895 Y123.295 E.10193
G1 X115.599 Y123.295 E.02548
G1 X115.599 Y125.886 E.05097
G1 X114.303 Y125.886 E.02548
G1 X114.303 Y126.532 E.01271
G1 X100.654 Y120.767 E.29143
G1 X100.654 Y117.419 E.06584
G1 X101.95 Y117.419 E.02548
G1 X101.95 Y116.124 E.02548
G1 X103.246 Y116.124 E.02548
G1 X103.246 Y113.533 E.05097
G1 X104.541 Y113.533 E.02548
G1 X104.541 Y109.646 E.07645
G1 X105.837 Y109.646 E.02548
G1 X105.837 Y107.054 E.05097
G1 X107.132 Y107.054 E.02548
G1 X107.132 Y104.463 E.05097
G1 X108.428 Y104.463 E.02548
G1 X108.428 Y100.576 E.07645
G1 X109.724 Y100.576 E.02548
G1 X109.724 Y96.689 E.07645
G1 X111.019 Y96.689 E.02548
G1 X111.019 Y94.098 E.05097
G1 X112.315 Y94.098 E.02548
G1 X112.315 Y91.507 E.05097
G1 X113.61 Y91.507 E.02548
G1 X113.61 Y88.916 E.05097
G1 X114.906 Y88.916 E.02548
G1 X114.906 Y85.029 E.07645
G1 X116.202 Y85.029 E.02548
G1 X116.202 Y83.733 E.02548
G1 X127.26 Y83.733 E.2175
G1 X127.26 Y84.97 E.02432
G1 X128.086 Y94.614 F9000
G1 F1200
G1 X128.086 Y85.384 E.18155
G1 X127.648 Y85.384 E.00862
G1 X127.648 Y94.436 E.17806
G1 X127.21 Y94.436 E.00862
G1 X127.21 Y85.384 E.17806
G1 X126.905 Y85.384 E.006
G1 X126.905 Y84.088 E.02548
G1 X126.772 Y84.088 E.00262
G1 X126.772 Y97.028 E.25451
G1 X126.334 Y97.028 E.00862
G1 X126.334 Y84.088 E.25451
G1 X125.896 Y84.088 E.00862
G1 X125.896 Y97.028 E.25451
G1 X125.609 Y97.028 E.00563
G1 X125.609 Y99.619 E.05097
G1 X125.458 Y99.619 E.00298
G1 X125.458 Y84.088 E.30548
G1 X125.02 Y84.088 E.00862
G1 X125.02 Y99.619 E.30548
G1 X124.581 Y99.619 E.00862
G1 X124.581 Y84.088 E.30548
G1 X124.143 Y84.088 E.00862
G1 X124.143 Y102.21 E.35644
G1 X123.705 Y102.21 E.00862
G1 X123.705 Y84.088 E.35644
G1 X123.267 Y84.088 E.00862
G1 X123.267 Y102.21 E.35644
G1 X123.018 Y102.21 E.0049
G1 X123.018 Y106.097 E.07645
G1 X122.829 Y106.097 E.00371
G1 X122.829 Y84.088 E.43289
G1 X122.391 Y84.088 E.00862
G1 X122.391 Y106.097 E.43289
G1 X121.953 Y106.097 E.00862
G1 X121.953 Y84.088 E.43289
G1 X121.515 Y84.088 E.00862
G1 X121.515 Y108.688 E.48386
G1 X121.077 Y108.688 E.00862
G1 X121.077 Y84.088 E.48386
G1 X120.639 Y84.088 E.00862
G1 X120.639 Y108.688 E.48386
G1 X120.427 Y108.688 E.00418
G1 X120.427 Y111.279 E.05097
G1 X120.201 Y111.279 E.00444
G1 X120.201 Y84.088 E.53483
G1 X119.763 Y84.088 E.00862
G1 X119.763 Y111.279 E.53483
G1 X119.325 Y111.279 E.00862
G1 X119.325 Y84.088 E.53483
G1 X118.887 Y84.088 E.00862
G1 X118.887 Y115.166 E.61128
G1 X118.449 Y115.166 E.00862
G1 X118.449 Y84.088 E.61128
G1 X118.011 Y84.088 E.00862
G1 X118.011 Y115.166 E.61128
G1 X117.835 Y115.166 E.00345
G1 X117.835 Y117.758 E.05097
G1 X117.573 Y117.758 E.00517
G1 X117.573 Y84.088 E.66225
G1 X117.135 Y84.088 E.00862
G1 X117.135 Y117.758 E.66225
G1 X116.696 Y117.758 E.00862
G1 X116.697 Y84.088 E.66225
G1 X116.557 Y84.088 E.00275
G1 X116.557 Y85.384 E.02548
G1 X116.258 Y85.384 E.00586
G1 X116.258 Y122.94 E.7387
G1 X115.82 Y122.94 E.00862
G1 X115.82 Y85.384 E.7387
G1 X115.382 Y85.384 E.00862
G1 X115.382 Y122.94 E.7387
G1 X115.244 Y122.94 E.00272
G1 X115.244 Y125.531 E.05097
G1 X114.944 Y125.531 E.0059
G1 X114.944 Y89.271 E.71321
G1 X114.506 Y89.271 E.00862
G1 X114.506 Y125.531 E.71321
G1 X114.068 Y125.531 E.00862
G1 X114.068 Y89.271 E.71321
G1 X113.965 Y89.271 E.00202
G1 X113.965 Y91.862 E.05097
G1 X113.63 Y91.862 E.00659
G1 X113.63 Y125.863 E.66877
G1 X113.192 Y125.678 E.00935
G1 X113.192 Y91.862 E.66513
G1 X112.754 Y91.862 E.00862
G1 X112.754 Y125.493 E.66149
G1 X112.316 Y125.308 E.00935
G1 X112.316 Y94.453 E.60688
G1 X111.878 Y94.453 E.00862
G1 X111.878 Y125.123 E.60324
G1 X111.44 Y124.938 E.00935
G1 X111.44 Y94.453 E.5996
G1 X111.374 Y94.453 E.00129
G1 X111.374 Y97.044 E.05097
G1 X111.002 Y97.044 E.00732
G1 X111.002 Y124.752 E.545
G1 X110.564 Y124.567 E.00935
G1 X110.564 Y97.044 E.54136
G1 X110.126 Y97.044 E.00862
G1 X110.126 Y124.382 E.53772
G1 X109.688 Y124.197 E.00935
G1 X109.688 Y100.931 E.45763
G1 X109.25 Y100.931 E.00862
G1 X109.25 Y124.012 E.45399
G1 X108.812 Y123.827 E.00935
G1 X108.812 Y100.931 E.45035
G1 X108.783 Y100.931 E.00057
G1 X108.783 Y104.818 E.07645
G1 X108.373 Y104.818 E.00805
G1 X108.373 Y123.642 E.37026
G1 X107.935 Y123.457 E.00935
G1 X107.935 Y104.818 E.36662
G1 X107.497 Y104.818 E.00862
G1 X107.497 Y123.272 E.36298
G1 X107.059 Y123.087 E.00935
G1 X107.059 Y107.409 E.30837
G1 X106.621 Y107.409 E.00862
G1 X106.621 Y122.902 E.30473
G1 X106.183 Y122.717 E.00935
G1 X106.183 Y110 E.25013
G1 X105.745 Y110 E.00862
G1 X105.745 Y122.532 E.24649
G1 X105.307 Y122.347 E.00935
G1 X105.307 Y110 E.24285
G1 X104.896 Y110 E.00809
G1 X104.896 Y113.887 E.07645
G1 X104.869 Y113.887 E.00053
G1 X104.869 Y122.162 E.16276
G1 X104.431 Y121.977 E.00935
G1 X104.431 Y113.887 E.15912
G1 X103.993 Y113.887 E.00862
G1 X103.993 Y121.792 E.15548
G1 X103.555 Y121.607 E.00935
G1 X103.555 Y116.479 E.10087
G1 X103.117 Y116.479 E.00862
G1 X103.117 Y121.422 E.09723
G1 X102.679 Y121.237 E.00935
G1 X102.679 Y116.479 E.09359
G1 X102.305 Y116.479 E.00736
G1 X102.305 Y117.774 E.02548
G1 X102.241 Y117.774 E.00126
G1 X102.241 Y121.052 E.06447
G1 X101.803 Y120.867 E.00935
G1 X101.803 Y117.774 E.06083
G1 X101.365 Y117.774 E.00862
G1 X101.365 Y120.874 E.06098
;WIPE_START
G1 F7200
G1 X101.365 Y117.774 E-.7363
G1 X101.464 Y117.774 E-.0237
;WIPE_END
G1 E-.04 F1800
G1 X101.775 Y122.393 F9000
G1 X103.226 Y143.957
G1 X103.306 Y145.144
G1 E.8 F1800
G1 F1200
G1 X103.007 Y146.616 E.02955
G1 X96.767 Y146.616 E.12274
G1 X96.767 Y145.32 E.02548
G1 X94.176 Y145.32 E.05097
G1 X94.176 Y141.287 E.07932
G1 X103.251 Y145.121 E.19377
G1 X102.679 Y146.439 F9000
G1 F1200
G1 X102.679 Y145.264 E.0231
G1 X102.241 Y145.079 E.00935
G1 X102.241 Y146.261 E.02325
G1 X101.803 Y146.261 E.00862
G1 X101.803 Y144.894 E.02689
G1 X101.365 Y144.709 E.00935
G1 X101.365 Y146.261 E.03053
G1 X100.927 Y146.261 E.00862
G1 X100.927 Y144.524 E.03417
G1 X100.489 Y144.339 E.00935
G1 X100.489 Y146.261 E.03781
G1 X100.05 Y146.261 E.00862
G1 X100.05 Y144.154 E.04145
G1 X99.612 Y143.969 E.00935
G1 X99.612 Y146.261 E.04509
G1 X99.174 Y146.261 E.00862
G1 X99.174 Y143.784 E.04873
G1 X98.736 Y143.599 E.00935
G1 X98.736 Y146.261 E.05237
G1 X98.298 Y146.261 E.00862
G1 X98.298 Y143.414 E.05601
G1 X97.86 Y143.229 E.00935
G1 X97.86 Y146.261 E.05964
G1 X97.422 Y146.261 E.00862
G1 X97.422 Y143.044 E.06328
G1 X96.984 Y142.859 E.00935
G1 X96.984 Y144.966 E.04144
G1 X96.546 Y144.966 E.00862
G1 X96.546 Y142.674 E.04508
G1 X96.108 Y142.489 E.00935
G1 X96.108 Y144.966 E.04872
G1 X95.67 Y144.966 E.00862
G1 X95.67 Y142.304 E.05236
G1 X95.232 Y142.119 E.00935
G1 X95.232 Y144.966 E.056
G1 X94.794 Y144.966 E.00862
G1 X94.794 Y141.741 E.06342
;WIPE_START
G1 F7200
G1 X94.794 Y144.941 E-.76
;WIPE_END
G1 E-.04 F1800
G1 X107.32 Y145.686 F9000
G1 X112.993 Y146.129
G1 X112.52 Y145.929
G1 X112.493 Y145.994
G1 E.8 F1800
;TYPE:Perimeter
;WIDTH:0.419999
G1 F1200
G1 X112.572 Y146.064 E.00208
G1 X115.251 Y147.196 E.05721
G1 X114.632 Y148.662 E.0313
G1 X85.53 Y136.369 E.62138
G1 X86.149 Y134.903 E.0313
G1 X88.829 Y136.035 E.05721
G1 X89.202 Y136.064 E.00736
G1 X89.473 Y135.912 E.00612
G1 X89.604 Y135.72 E.00456
G1 X96.183 Y120.144 E.33258
G1 X118.836 Y129.713 E.48369
G1 X112.257 Y145.289 E.33258
G1 X112.211 Y145.516 E.00456
G1 X112.291 Y145.817 E.00612
G1 X112.448 Y145.955 E.0041
G1 X112.725 Y145.701 F9000
;TYPE:External perimeter
G1 F1200
G1 X115.768 Y146.986 E.06496
G1 X114.842 Y149.178 E.04681
G1 X85.013 Y136.579 E.63688
G1 X85.94 Y134.387 E.04681
G1 X88.982 Y135.672 E.06496
G1 X89.106 Y135.682 E.00245
G1 X89.24 Y135.567 E.00347
G1 X95.973 Y119.628 E.34033
G1 X119.353 Y129.503 E.4992
G1 X112.62 Y145.442 E.34033
G1 X112.632 Y145.618 E.00347
G1 X112.68 Y145.661 E.00127
G1 X112.67 Y146.097 F9000
G1 E-.8 F1800
G1 X118.43 Y130.351 F9000
G1 E.8 F1800
;TYPE:Solid infill
;WIDTH:0.425475
G1 F1200
G1 X117.599 Y129.52 E.02343
G1 X116.621 Y129.107 E.02119
G1 X118.127 Y130.613 E.04248
G1 X117.959 Y131.01 E.0086
G1 X115.642 Y128.693 E.06535
G1 X114.663 Y128.28 E.02119
G1 X117.791 Y131.408 E.08821
G1 X117.623 Y131.805 E.0086
G1 X113.685 Y127.866 E.11108
G1 X112.706 Y127.453 E.02119
G1 X117.455 Y132.202 E.13395
G1 X117.287 Y132.6 E.0086
G1 X111.727 Y127.04 E.15681
G1 X110.749 Y126.626 E.02119
G1 X117.12 Y132.997 E.17968
G1 X116.952 Y133.395 E.0086
G1 X109.77 Y126.213 E.20255
G1 X108.791 Y125.799 E.02119
G1 X116.784 Y133.792 E.22541
G1 X116.616 Y134.19 E.0086
G1 X107.812 Y125.386 E.24828
G1 X106.834 Y124.973 E.02119
G1 X116.448 Y134.587 E.27115
G1 X116.28 Y134.984 E.0086
G1 X105.855 Y124.559 E.29401
G1 X104.876 Y124.146 E.02119
G1 X116.112 Y135.382 E.31688
G1 X115.944 Y135.779 E.0086
G1 X103.898 Y123.733 E.33975
G1 X102.919 Y123.319 E.02119
G1 X115.777 Y136.177 E.36262
G1 X115.609 Y136.574 E.0086
G1 X101.94 Y122.906 E.38548
G1 X100.962 Y122.492 E.02119
G1 X115.441 Y136.972 E.40835
G1 X115.273 Y137.369 E.0086
G1 X99.983 Y122.079 E.43122
G1 X99.004 Y121.666 E.02119
G1 X115.105 Y137.766 E.45408
G1 X114.937 Y138.164 E.0086
G1 X98.026 Y121.252 E.47695
G1 X97.047 Y120.839 E.02119
G1 X114.769 Y138.561 E.49982
G1 X114.602 Y138.959 E.0086
G1 X96.297 Y120.654 E.51624
G1 X96.129 Y121.052 E.0086
G1 X114.434 Y139.356 E.51624
G1 X114.266 Y139.754 E.0086
G1 X95.961 Y121.449 E.51624
G1 X95.793 Y121.846 E.0086
G1 X114.098 Y140.151 E.51624
G1 X113.93 Y140.548 E.0086
G1 X95.626 Y122.244 E.51624
G1 X95.458 Y122.641 E.0086
G1 X113.762 Y140.946 E.51624
G1 X113.594 Y141.343 E.0086
G1 X95.29 Y123.039 E.51624
G1 X95.122 Y123.436 E.0086
G1 X113.426 Y141.741 E.51624
G1 X113.259 Y142.138 E.0086
G1 X94.954 Y123.834 E.51624
G1 X94.786 Y124.231 E.0086
G1 X113.091 Y142.535 E.51624
G1 X112.923 Y142.933 E.0086
G1 X94.618 Y124.628 E.51624
G1 X94.45 Y125.026 E.0086
G1 X112.755 Y143.33 E.51624
G1 X112.587 Y143.728 E.0086
G1 X94.283 Y125.423 E.51624
G1 X94.115 Y125.821 E.0086
G1 X112.419 Y144.125 E.51624
G1 X112.251 Y144.523 E.0086
G1 X93.947 Y126.218 E.51624
G1 X93.779 Y126.615 E.0086
G1 X112.219 Y145.055 E.52005
G1 E-.8 F1800
G1 X113.944 Y146.78 F9000
G1 E.8 F1800
G1 F1200
G1 X114.755 Y147.591 E.02287
G1 X114.587 Y147.989 E.0086
G1 X113.299 Y146.7 E.03633
G1 X112.438 Y146.337 E.01863
G1 X112.026 Y145.975 E.01093
G1 X111.904 Y145.519 E.00942
G1 X111.94 Y145.342 E.00359
G1 X93.611 Y127.013 E.51693
G1 X93.443 Y127.41 E.0086
G1 X114.17 Y148.137 E.58455
G1 X113.191 Y147.724 E.02119
G1 X93.275 Y127.808 E.56168
G1 X93.108 Y128.205 E.0086
G1 X112.213 Y147.31 E.53881
G1 X111.234 Y146.897 E.02119
G1 X92.94 Y128.603 E.51595
G1 X92.772 Y129 E.0086
G1 X110.255 Y146.484 E.49308
G1 X109.277 Y146.07 E.02119
G1 X92.604 Y129.397 E.47021
G1 X92.436 Y129.795 E.0086
G1 X108.298 Y145.657 E.44735
G1 X107.319 Y145.243 E.02119
G1 X92.268 Y130.192 E.42448
G1 X92.1 Y130.59 E.0086
G1 X106.341 Y144.83 E.40161
G1 X105.362 Y144.417 E.02119
G1 X91.932 Y130.987 E.37875
G1 X91.765 Y131.385 E.0086
G1 X104.383 Y144.003 E.35588
G1 X103.405 Y143.59 E.02119
G1 X91.597 Y131.782 E.33301
G1 X91.429 Y132.179 E.0086
G1 X102.426 Y143.176 E.31015
G1 X101.447 Y142.763 E.02119
G1 X91.261 Y132.577 E.28728
G1 X91.093 Y132.974 E.0086
G1 X100.469 Y142.35 E.26441
G1 X99.49 Y141.936 E.02119
G1 X90.925 Y133.372 E.24154
G1 X90.757 Y133.769 E.0086
G1 X98.511 Y141.523 E.21868
G1 X97.532 Y141.11 E.02119
G1 X90.589 Y134.167 E.19581
G1 X90.422 Y134.564 E.0086
G1 X96.554 Y140.696 E.17294
G1 X95.575 Y140.283 E.02119
G1 X90.254 Y134.961 E.15008
G1 X90.086 Y135.359 E.0086
G1 X94.596 Y139.869 E.12721
G1 X93.618 Y139.456 E.02119
G1 X89.918 Y135.756 E.10434
G1 X89.879 Y135.848 E.00199
G1 X89.703 Y136.107 E.00624
G1 X92.639 Y139.043 E.0828
G1 X91.66 Y138.629 E.02119
G1 X89.351 Y136.32 E.06512
G1 X89.277 Y136.362 E.00169
G1 X88.861 Y136.365 E.0083
G1 X88.81 Y136.344 E.00111
G1 X90.682 Y138.216 E.0528
G1 X89.703 Y137.803 E.02119
G1 X87.839 Y135.939 E.05256
G1 X86.869 Y135.534 E.02097
G1 X88.724 Y137.389 E.05233
G1 X87.746 Y136.976 E.02119
G1 X86.24 Y135.47 E.04248
G1 X86.072 Y135.867 E.0086
G1 X87.1 Y136.896 E.02901
M106 S255
;LAYER_CHANGE
;Z:0.395714
;HEIGHT:0.275714
;BEFORE_LAYER_CHANGE
G92 E0
;0.395714


;WIPE_START
G1 F7200
G1 X86.072 Y135.867 E-.34551
G1 X86.24 Y135.47 E-.10246
G1 X87.169 Y136.399 E-.31202
;WIPE_END
G1 E-.04 F1800
G1 Z.396 F9000
;AFTER_LAYER_CHANGE
;0.395714
M104 S210 ; set temperature
G1 X86.891 Y137.057
G1 X92.072 Y139.246
G1 X99.705 Y143.678
G1 E.8 F1800
;TYPE:Support material
;WIDTH:0.36
G1 F2400
G1 X99.996 Y143.678 E.01003
;WIPE_START
G1 F7200
G1 X99.705 Y143.678 E-.06911
;WIPE_END
G1 E-.73089 F1800
G1 X100.203 Y142.68 F9000
G1 X108.839 Y125.377
G1 X109.286 Y124.48
G1 E.8 F1800
G1 F2400
G1 X111.366 Y125.359 E.07785
G1 X111.366 Y124.244 E.03845
